X:1
T:Miserere mei - Byrd
T:James Gibb editions
T:#
%%score 1 2 { 3 | 4 } 5
L:1/8
Q:1/4=94
M:2/2
K:Bb
V:1 treble nm="Soprano" snm="S"
V:2 treble nm="Alto" snm="A"
V:3 treble-8 nm="Tenor" snm="T"
V:4 treble-8 
V:5 bass nm="Bass" snm="B"
V:1
"^Miserere mei""^Psalm 50:3 (Vulgate)""^William Byrd\n(1543-1623)"{[=Eg]} d6 d2 | c4 d4 | %2
w: Mi- se-|re- re|
 e4 d2 (d2- | d2 cB c4) | d8 | z2 d4 d2 | d4 d4 | d4 d4 |[M:2/2] (B3 A B2 c2) | d8 | z4 z4 | %11
w: me- i, De\-||us,|mi- se-|re- re|me- i,|De\- * * *|us,||
 z4 z2 d2- | d2 f4 =e2 | d4 c4 | z4 z2 A2 | c2 d2 f3 =e | d4 z4 | z2 A2 c2 d2 | g3 g f4 | %19
w: se\-|* cun- dum|ma- gnam|mi-|se- ri- cor- di-|am,|mi- se- ri-|cor- di- am|
 (=e4 d2 f2- | f=e d2- d^c/=B/ c2) | d8 | z2 d4 d2 | f4 d4 | z2 B3 (c d2) | e6 (dc) | d2 d4 c2 | %27
w: tu\- * *||am;|Et se-|cun- dum|mul- ti\- *|tu- di\- *|nem mi- se-|
 B2 A2 B4 | G2 c2 e4 | d8 | z2 c2 c2 c2 | G3 A B3 c | (d2 cB AB c2- | cBAG A4) | G2 (B3 ABc) | d8 | %36
w: ra- ti- o-|num tu- a-|rum|de- le in-|i- qui- ta- tem|me\- * * * * *||am, me\- * * *|am,|
 z8 |[M:2/2] z4 z2 d2 | d2 d2 A3 B | c2 d2 B4 | A2 A2 A2 GB- | BA (G3 ^F/=E/ F2) | G4 z2 g2 | %43
w: |de-|le in- i- qui-|ta- tem me-|am, in- i- qui- ta\-|* tem me\- * * *|am, de-|
 g2 g2 d3 e | f2 g2 e4 | d4 z2 f2 | f2 f2 B3 c | d2 e2 d4 | d4 z4 | %49
w: le in- i- qui-|ta- tem me-|am, de-|le in- i- qui-|ta- tem me-|am,|
 z2[Q:1/4=93] d2[Q:1/4=91] e2[Q:1/4=89] c2 |[Q:1/4=88] d2[Q:1/4=86] =B2[Q:1/4=84] (c4- | %51
w: in- i- qui-|ta- tem me\-|
[Q:1/4=82] c2[Q:1/4=81] =B[Q:1/4=80]A)[Q:1/4=80] !fermata!B4 |] %52
w: * * * am.|
V:2
{[=B,d]} G6 G2 | G4 G4 | G6 D2 | (E3 F G4) | G8 | z2 A4 A2 | G4 A4 | B4 A2 (B2- | %8
w: Mi- se-|re- re|me- i,|De\- * *|us,|mi- se-|re- re|me- i, De\-|
[M:2/2] BAG^F) G4 | ^F4 z2 A2- | A2 B2- B2 A2 | G4 ^F4 | z2 D2 F2 G2 | B3 B A2 (c2- | cBAG) A4 | %15
w: |us, se\-|* cun\- * dum|ma- gnam|mi- se- ri-|cor- di- am tu\-|* * * * am,|
 A2 F3 G A2- | AA D2 G4 | C4 z4 | z2 =E2 A2 =B2 | c3 c B2 (A2- | AG/F/ G2 A4) | ^F8 | z4 z2 F2- | %23
w: mi- se- ri- cor\-|* di- am tu-|am,|mi- se- ri-|cor- di- am tu\-||am;|Et|
 F2 F2 B4 | G2 E4 F2 | G4 C4 | F4 z2 F2- | F2 F2 G3 A | B2 A2 G4 | G8 | G8 | z2 G2 G2 G2 | %32
w: * se- cun-|dum mul- ti-|tu- di-|nem mi\-|* se- ra- ti-|o- num tu-|a-|rum|de- le in-|
 D3 =E F2 G(A- | AG G4) ^F2 | z2 G2 G2 G2 | D3 =E F3 G | (A2 D2 F2 G2- |[M:2/2] GABG) A2 A2 | %38
w: i- qui- ta- tem me\-|* * * am,|de- le in-|i- qui- ta- tem|me\- * * *|* * * * am, in-|
 D3 =E FG (A2- | A2 GF G4) | ^F4 z4 | z4 z2 d2 | d2 d2 G3 A | B2 G2 B4- | B4 E4 | z2 B2 B2 B2 | %46
w: i- qui- ta- tem me\-||am,|de-|le in- i- qui-|ta- tem me\-|* am,|de- le in-|
 F>G A2 G2 (B2- | BA G4 ^F2) | G2 z D E2 C2 | D2 =B,2 (CD E2 | D4) G4- | !fermata!G8 |] %52
w: i- qui- ta- tem me\-||am, in- i- qui-|ta- tem me\- * *|* am.||
V:3
{[Dg]} d6 d2 | e4 d4 | c4 =B4 | (c3 d e4) | d8 | z2 ^f4 f2 | g2 d2 (d3 c | BA G2) ^F2 z (=F | %8
w: Mi- se-|re- re|me- i,|De\- * *|us,|mi- se-|re- re me\- *|* * * i, De\-|
[M:2/2][K:treble-8] GA B4 AG) | A2 d4 f2- | f2 f2 (f4 | d4) d4 | f4 d2 =e2 | f3 f f4 | (f3 =e d4 | %15
w: |us, se- cun\-|* dum ma\-|* gnam|mi- se- ri-|cor- di- am|tu\- * *|
 A2 Bc d4) | z2 G2 d2 =e2 | f3 f =e2 (d2- | d^c/=B/ c2) d2 z d | =ef g3 g f2 | (d4 =e4) | d8 | %22
w: * * * am,|mi- se- ri-|cor- di- am tu\-|* * * * am. mi-|se- ri- cor- di- am|tu\- *|am;|
 z2 f4 f2 | d4 B2 d2 | e2 (g4 f2 | e6) f2 | d2 f4 c2 | f3 f e2 d2- | d (e f2) (g2 ec | %29
w: Et se-|cun- dum mul-|ti- tu\- *|* di-|nem mi- se-|ra- ti- o- num|* tu\- * a\- * *|
 dG g3 f d2) | =e4 z2 _e2 | e2 e2 dG g2- | g2 g2 (fd e2) | c4 z2 d2 | d2 d2 G3 A | B2 G2 A4 | %36
w: |rum de-|le in- i- qui- ta\-|* tem me- * *|am, de-|le in- i- qui-|ta- tem me-|
 d4 z2 G2 |[M:2/2][K:treble-8] G2 G2 D2 D2 | B3 c (d=e f2 | =e2) d2 z2 d2 | d2 d2 A>c (Bd- | %41
w: am, de-|le in- i- qui-|ta- tem me\- * *|* am, in-|i- qui- ta- tem me\- *|
 dc/B/ c2) d2 d2 | B3 B e>d (ef | g2 e2) f2 f2 | f2 B2 c4 | F2 (f>e dc B2) | A4 d4 | z4 z2 d2 | %48
w: * * * * am, in-|i- qui- ta- tem me\- *|* * am, in-|i- qui- ta-|tem me\- * * * *|* am,|de-|
 d2 d2 G3 A | B2 G2 (g4- | g2 d2 e4- | e2 dc) !fermata!d4 |] %52
w: le in- i- qui-|ta- tem me\-||* * * am.|
V:4
{[Cf]} =B6 B2 | c2 G2 G4 | G4 z2 (G2- | GFED C2 c2- | c2 =BA) B4 | z2 A4 A2 | B4 A2 d2- | %7
w: Mi- se-|re- re me-|i, De\-||* * * us,|mi- se-|re- re me\-|
 d2 B2 d4 |[M:2/2][K:treble-8] G8 | z4 A4 | d4- d2 c2 | B4 A4 | z8 | z4 z2 A2 | c2 d2 f3 f | %15
w: * i, De-|us,|se-|cun\- * dum|ma- gnam||mi-|se- ri- cor- di-|
 =e2 (d4 A2- | A2 B2 G4) | F4 z2 A2 | G2 G2 A2 d2 | G4 (d4 | D4) A4- | A8 | z2 B4 B2 | B4 F2 B2- | %24
w: am tu\- *||am, mi-|se- ri- cor- di-|am tu\-|* am;||Et se-|cun- dum mul\-|
 B2 G4 (B2- | B2 AG A2) A2 | B2 B4 A2 | d3 c B2 G2- | G2 A2 (BG c2- | c2 =BA B4) | c4 z2 c2 | %31
w: * ti- tu\-|* * * * di-|nem mi- se-|ra- * ti\-o- num|* tu- a\- * *||rum de-|
 c2 c2 G3 A | B2 c2 (d2 c2 | e4 d4) | G4 z4 | z2 d2 d2 d2 | A3 B c2 d2 |[M:2/2][K:treble-8] B4 A4 | %38
w: le in- i- qui-|ta- tem me\- *||am,|de- le in-|i- qui- ta- tem|me- am,|
 z2 d2 d2 d2 | A2 B2 d2 G2 | z2 d2 d2 d2 | G3 A B2 A2 | G4 G4 | z2 B2 B2 B2 | F>A (GB- BA/G/ A2) | %45
w: de- le in-|i- qui- ta- tem,|de- le in-|i- qui- ta- tem|me- am,|in- i- qui-|ta- tem me\- * * * * *|
 B4 z2 d2 | d2 d2 G3 A | B2 c2 A4 | G4 z2 G2- | G2 G4 G2 | B2 G2 G4 | !fermata!G8 |] %52
w: am, de-|le in- i- qui-|ta- tem me-|am, in\-|* i- qui-|ta- tem me-|am.|
V:5
{[A,,D]} G,6 G,2 | C,4 =B,,4 | C,4 G,4 | C,8 | G,8 | z2 D,4 D,2 | G,4 ^F,4 | G,4 D,4 |[M:2/2] E,8 | %9
w: Mi- se-|re- re|me- i,|De-|us.|mi- se-|re- re|me- i,|De-|
 D,8 | D,4 F,2 F,2 | G,4 D,2 D,2 | D6 C2 | B,4 F,4- | F,4 z4 | z4 z2 D,2 | F,2 G,2 B,3 B, | %17
w: us,|se- cun- dum|ma- gnam, se-|cun- dum|ma- gnam||mi-|se- ri- cor- di-|
 A,2 (A,3 G, F,2 | =E,4) D,2 D,2 | C,2 C,2 D,3 C, | B,,4 A,,4 | D,8 | z2 B,,4 B,,2 | B,,4 B,,4 | %24
w: am tu\- * *|* am, mi-|se- ri- cor- di-|am tu-|am;|Et se-|cun- dum|
 E,6 D,2 | C,6 F,2 | B,,4 F,3 F, | D,2 D,2 G,4- | G,2 F,2 E,2 (C,2 | G,8) | C,8 | z8 | z8 | z8 | %34
w: mul- ti-|tu- di-|nem mi- se-|ra- ti- o\-|* num tu- a\-||rum||||
 z4 z2 G,2 | G,2 G,2 D,3 =E, | F,2 G,2 (A,2 B,2- |[M:2/2] B,A, G,3 ^F,/=E,/ F,2) | G,4 z4 | %39
w: de-|le in- i- qui-|ta- tem me\- *||am,|
 z2 G,2 G,2 G,2 | D,3 E, F,2 G,2 | E,4 D,4 | z4 z2 E,2 | E,2 E,2 B,,3 C, | D,2 E,2 (C,4 | B,,8) | %46
w: de- le in-|i- qui- ta- tem|me- am,|de-|le in- i- qui-|ta- tem me\-||
 D,4 z4 | z4 D,4 | =B,,2 B,,2 C,2 C,2 | G,4"^i" C,4 | (G,3 F, E,2 C,2) | !fermata!G,8 |] %52
w: am,|de-|le in- i- qui-|ta- tem|me\- * * *|am.|

